X: 1
T: the Barren Rocks of Aden
A: Pipe Major A. Mackellar
B: Scots Guards #217 p.116
R: march
Z: John Chambers <jc:trillian.mit.edu>
M: 2/4
L: 1/8
K: D
d/e/ \
|: "D"f>g fe | df Ad | "A7"ce Ad/e/ | "D"fA d>e \
|  "D"f>g fe | df Ad | "A7"ce Af/e/ | "D"d4 :|
f/g/ \
|: "D"a>f df | "A7"ef Ae/f/ | ge cA | "D"df "A7"f/e/f/g/ \
|  "D"a>f df | "A7"ef Ae/f/ | ge cA | "D"d4 :|
